X:23038
T:Weasel's Revenge
R:Polka
C:Jan Hurst 1998
O:England; Hertfordshire
Z:Paul Hardy's Session Tunebook 2022 (see www.paulhardy.net). Creative Commons cc by-nc-sa licenced.
M:4/4
L:1/8
Q:1/4=160
K:Em
GF|"Em"E2 GF E2 GF|E2 .e2 "Bm"B3A|"C"G2 E2 EF GE|"D"F2 D2 D2 GF|"Em"E2 GF E2 GF|E2 .e2 "Bm"B3A|"C"G2 E2 "D"FE D2|"Em"E6:|
|:z2|"Em"B2 e2 e2 fg|"D"f2 d2 d2 gf|"Em"e2 B2 B2 cB|"D"AG FG AB AF|"Em"B2 e2 e2 fg|"D"f2 d2 d2 gf|"C"e2 B2 "D"A2 F2|"Em"E6:|

